X: 27732
T: Morning Mist, The
R: reel
M: 4/4
K: Gmajor
d2BG dGBG|dGBG dGBd|c2A=F cFAF|c=FAF CFAc|
d2BG dGBG|dGBG [Dd]GBd|cBAB cedc|1 BdAF G2Bc:|2 BdAF GABd||
|:g2dc Bcdc|BG~G2 DGBd|aged ^ceag|fdad bdaf|
g2dc Bcdc|BG~G2 dGBd|cBAB cedc|1 BdAF G2Bd:|2 BdAF G2Bc||
d2BG dGBG|dGBG DGBd|c2A=F cFAF|c=FAF CFAc|
d2BG dGBc|dgfa gdBd|cBAB cedc|1 BdAF G2Bc:|2 BdAF GABd||

